src/dog-park-18.svg

<?xml version="1.0" encoding="UTF-8" standalone="no"?>
<svg xmlns="http://www.w3.org/2000/svg" width="18" height="18">
  <path opacity="0.3" fill="#FFF" d="m 13.90625,2.5 a 0.50005,0.50005 0 0 0 -0.1875,0.09375 l -1.5,1 a 0.50005,0.50005 0 0 0 -0.15625,0.1875 l -1,2 A 0.50005,0.50005 0 0 0 11,6 0.50005,0.50005 0 0 0 10.78125,6.0625 L 9.90625,6.5 6.125,6.5 5.21875,5.875 6.40625,4.3125 A 0.50005,0.50005 0 0 0 6,3.5 l -1,0 A 0.50005,0.50005 0 0 0 4.59375,3.6875 l -1.5,2 A 0.50005,0.50005 0 0 0 3.0625,6.21875 l 1,1.90625 -0.375,1 A 0.50005,0.50005 0 0 0 3.65625,9.375 L 3.71875,9.90625 1.5625,13.75 A 0.50005,0.50005 0 0 0 2,14.5 l 1,0 A 0.50005,0.50005 0 0 0 3.375,14.3125 L 4.6875,12.71875 4.5,13.90625 A 0.50005,0.50005 0 0 0 5,14.5 l 1,0 a 0.50005,0.50005 0 0 0 0.5,-0.375 l 0.875,-3.5 2.5,0.6875 -0.84375,2.53125 A 0.50005,0.50005 0 0 0 9.5,14.5 l 1.5,0 a 0.50005,0.50005 0 0 0 0.46875,-0.34375 L 11.84375,13.0625 12,14.09375 A 0.50005,0.50005 0 0 0 12.5,14.5 l 1.5,0 a 0.50005,0.50005 0 0 0 0.46875,-0.65625 L 13.5,11 13.5,10.9375 13.5,8.5 A 0.50005,0.50005 0 0 0 13.9375,8.21875 L 14.3125,7.5 16.5,7.5 a 0.50005,0.50005 0 0 0 0.4375,-0.28125 l 0.5,-1 A 0.50005,0.50005 0 0 0 17.21875,5.5625 l -2.5,-1.25 0.6875,-1.03125 A 0.50005,0.50005 0 0 0 15,2.5 l -1,0 a 0.50005,0.50005 0 0 0 -0.09375,0 z"/>
  <path fill="#444444" d="M 12.5,4 14,3 15,3 14,4.5 17,6 16.5,7 14,7 13.5,8 11.5,6 z"/>
  <path fill="#444444" d="M 13,8.5 11,6.5 10,7 6,7 4.5,6 6,4 5,4 3.5,6 4.625,8.125 4.15,9.325 4.25,10 2,14 3,14 5.5,11 5,14 l 1,0 1,-4 3.5,1 -1,3 1.5,0 1,-3 0.5,3 1.5,0 -1,-3 z"/>
</svg>

<?xml version="1.0" encoding="UTF-8" standalone="no"?>
<!-- Created with Inkscape (http://www.inkscape.org/) -->

<svg
   xmlns:dc="http://purl.org/dc/elements/1.1/"
   xmlns:cc="http://creativecommons.org/ns#"
   xmlns:rdf="http://www.w3.org/1999/02/22-rdf-syntax-ns#"
   xmlns:svg="http://www.w3.org/2000/svg"
   xmlns="http://www.w3.org/2000/svg"
   xmlns:sodipodi="http://sodipodi.sourceforge.net/DTD/sodipodi-0.dtd"
   xmlns:inkscape="http://www.inkscape.org/namespaces/inkscape"
   width="18"
   height="18"
   id="svg4619"
   version="1.1"
   inkscape:version="0.48.2 r9819"
   sodipodi:docname="dog-park-18.svg">
  <defs
     id="defs4621" />
  <sodipodi:namedview
     id="base"
     pagecolor="#ffffff"
     bordercolor="#666666"
     borderopacity="1.0"
     inkscape:pageopacity="0.0"
     inkscape:pageshadow="2"
     inkscape:zoom="22.627417"
     inkscape:cx="3.9432433"
     inkscape:cy="9.3021263"
     inkscape:document-units="px"
     inkscape:current-layer="layer1"
     showgrid="true"
     showguides="false"
     inkscape:guide-bbox="true"
     inkscape:window-width="1121"
     inkscape:window-height="858"
     inkscape:window-x="200"
     inkscape:window-y="45"
     inkscape:window-maximized="0"
     inkscape:snap-grids="true"
     inkscape:snap-to-guides="false">
    <inkscape:grid
       type="xygrid"
       id="grid4627"
       empspacing="2"
       visible="true"
       enabled="true"
       snapvisiblegridlinesonly="true" />
    <sodipodi:guide
       orientation="0,1"
       position="7,18"
       id="guide4659" />
    <sodipodi:guide
       orientation="1,0"
       position="18,9"
       id="guide4661" />
    <sodipodi:guide
       orientation="0,1"
       position="16,17"
       id="guide4663" />
    <sodipodi:guide
       orientation="1,0"
       position="17,14"
       id="guide4665" />
    <sodipodi:guide
       orientation="1,0"
       position="0,16"
       id="guide4667" />
    <sodipodi:guide
       orientation="0,1"
       position="8,0"
       id="guide4669" />
    <sodipodi:guide
       orientation="1,0"
       position="2,10"
       id="guide4671" />
    <sodipodi:guide
       orientation="0,1"
       position="12,2"
       id="guide4673" />
  </sodipodi:namedview>
  <metadata
     id="metadata4624">
    <rdf:RDF>
      <cc:Work
         rdf:about="">
        <dc:format>image/svg+xml</dc:format>
        <dc:type
           rdf:resource="http://purl.org/dc/dcmitype/StillImage" />
        <dc:title />
      </cc:Work>
    </rdf:RDF>
  </metadata>
  <g
     inkscape:label="Layer 1"
     inkscape:groupmode="layer"
     id="layer1"
     transform="translate(0,-1034.3622)">
    <g
       id="g3007">
      <path
         transform="translate(0,1034.3622)"
         d="m 13.90625,2.5 a 0.50005,0.50005 0 0 0 -0.1875,0.09375 l -1.5,1 a 0.50005,0.50005 0 0 0 -0.15625,0.1875 l -1,2 A 0.50005,0.50005 0 0 0 11,6 0.50005,0.50005 0 0 0 10.78125,6.0625 L 9.90625,6.5 6.125,6.5 5.21875,5.875 6.40625,4.3125 A 0.50005,0.50005 0 0 0 6,3.5 l -1,0 A 0.50005,0.50005 0 0 0 4.59375,3.6875 l -1.5,2 A 0.50005,0.50005 0 0 0 3.0625,6.21875 l 1,1.90625 -0.375,1 A 0.50005,0.50005 0 0 0 3.65625,9.375 L 3.71875,9.90625 1.5625,13.75 A 0.50005,0.50005 0 0 0 2,14.5 l 1,0 A 0.50005,0.50005 0 0 0 3.375,14.3125 L 4.6875,12.71875 4.5,13.90625 A 0.50005,0.50005 0 0 0 5,14.5 l 1,0 a 0.50005,0.50005 0 0 0 0.5,-0.375 l 0.875,-3.5 2.5,0.6875 -0.84375,2.53125 A 0.50005,0.50005 0 0 0 9.5,14.5 l 1.5,0 a 0.50005,0.50005 0 0 0 0.46875,-0.34375 L 11.84375,13.0625 12,14.09375 A 0.50005,0.50005 0 0 0 12.5,14.5 l 1.5,0 a 0.50005,0.50005 0 0 0 0.46875,-0.65625 L 13.5,11 13.5,10.9375 13.5,8.5 A 0.50005,0.50005 0 0 0 13.9375,8.21875 L 14.3125,7.5 16.5,7.5 a 0.50005,0.50005 0 0 0 0.4375,-0.28125 l 0.5,-1 A 0.50005,0.50005 0 0 0 17.21875,5.5625 l -2.5,-1.25 0.6875,-1.03125 A 0.50005,0.50005 0 0 0 15,2.5 l -1,0 a 0.50005,0.50005 0 0 0 -0.09375,0 z"
         id="path3003"
         style="fill:#ffffff;fill-opacity:1;stroke:none;opacity:0.3"
         inkscape:original="M 14 3 L 12.5 4 L 11.5 6 L 13.5 8 L 14 7 L 16.5 7 L 17 6 L 14 4.5 L 15 3 L 14 3 z M 5 4 L 3.5 6 L 4.625 8.125 L 4.15625 9.3125 L 4.25 10 L 2 14 L 3 14 L 5.5 11 L 5 14 L 6 14 L 7 10 L 10.5 11 L 9.5 14 L 11 14 L 12 11 L 12.5 14 L 14 14 L 13 11 L 13 8.5 L 11 6.5 L 10 7 L 6 7 L 4.5 6 L 6 4 L 5 4 z "
         inkscape:radius="0.5"
         sodipodi:type="inkscape:offset" />
      <path
         style="fill:#444444;fill-opacity:1;stroke:none"
         d="m 12.5,1038.3622 1.5,-1 1,0 -1,1.5 3,1.5 -0.5,1 -2.5,0 -0.5,1 -2,-2 z"
         id="path3052"
         inkscape:connector-curvature="0"
         sodipodi:nodetypes="cccccccccc" />
      <path
         style="fill:#444444;fill-opacity:1;stroke:none"
         d="m 13,1042.8622 -2,-2 -1,0.5 -4,0 -1.5,-1 1.5,-2 -1,0 -1.5,2 1.125,2.125 -0.475,1.2 0.1,0.675 -2.25,4 1,0 2.5,-3 -0.5,3 1,0 1,-4 3.5,1 -1,3 1.5,0 1,-3 0.5,3 1.5,0 -1,-3 z"
         id="path3054"
         inkscape:connector-curvature="0"
         sodipodi:nodetypes="ccccccccccccccccccccccccc" />
    </g>
  </g>
</svg>
